!!!ONB: MCCC : IMC0038_03 : Extracted Monophonic Melody
!!!COM: Clementi, Muzio
!!!OPR: 6 Sonatinas
!!!OMV: 3
!!!SCT: Op.36
!!!ODT: 1797///
**kern
*thru
*staff1
*Ipiano
*clefG2
*k[f#]
*G:
*M3/8
*MM132
=1
8g
8g
8g
=2
8a
8dd
8cc
=3
8b
16g
16a
16b
16g
=4
8a
8r
8r
=5
8gg
8gg
8gg
=6
16aa
16gg
16ff#
16ee
16dd
16cc
=7
8b
16g
16a
16b
16g
=8
8a
8r
8r
=9
16r
16e
16f#
16g#
16a
16b
=10
16cc
16dd
8ee
8ee
=11
16r
16d
16e
16f#
16g
16a
=12
16b
16cc
8dd
8dd
=13
16cc
16d
16b
16d
16a
16d
=14
16b
16d
16a
16d
16g
16d
=15
16f#
16e
16d
16e
16f#
16g
=16
16a
16b
16dd
16cc
16b
16a
=17
8g
8g
8g
=18
8a
8dd
8cc
=19
8b
16g
16a
16b
16g
=20
8a
8r
8r
=21
8gg
8gg
8gg
=22
16aa
16gg
16ff#
16ee
16dd
16cc
=23
8b
16g
16a
16b
16g
=24
8a
8r
8r
=25
16r
16e
16f#
16g#
16a
16b
=26
16cc
16dd
8ee
8ee
=27
16r
16d
16e
16f#
16g
16a
=28
16b
16cc
16dd
16ee
16ff#
16gg
=29
16ff#
16ee
16dd
16cc
16b
16a
=30
4g
16b
16a
=31
4g
8r
=32
8.ddd
16bb
16ddd
16bb
=33
8gg
8gg
8gg
=34
8.bb
16gg
16bb
16gg
=35
8ee
8ee
8ee
=36
16ff#
16ee
16dd#
16ee
16ff#
16gg
=37
16bb
16aa
16gg
16ff#
16ee
16dd
=38
16cc#
16b
16a
16g
16f#
16e
=39
4d
8c#
=40
4.r
=41
4f#
8a
=42
4e
8a
=43
4g
8f#
=44
8e
8r
8r
=45
4f#
16b
16a
=46
4e
16b
16a
=47
4g
8f#
=48
8e
8r
8r
=49
16r
16dd
16cc#
16dd
16ee
16dd
=50
16b
16dd
16a
16dd
16g
16dd
=51
16r
16dd
16cc#
16dd
16ee
16dd
=52
16b
16dd
16a
16dd
16g#
16dd
=53
8a
8dd
8f#
=54
4.e
=55
8d
8r
8r
=56
4.r
=57
4f#
16b
16a
=58
4e
16b
16a
=59
4g
8f#
=60
8e
8r
8r
=61
16f#
16a
16g#
16a
16b
16a
=62
16e
16a
16g#
16a
16b
16a
=63
4g
8f#
=64
8e
8r
8r
=65
16r
16dd
16ee
16dd
16cc#
16dd
=66
16g
16dd
16a
16dd
16b
16dd
=67
16r
16dd
16ee
16dd
16cc#
16dd
=68
16g#
16dd
16a
16dd
16b
16dd
=69
8a
8dd
8f#
=70
8a
8g
16e
16f#
=71
8d
8d
8d
=72
8e
8e
8e
=73
8f#
8f#
8f#
=74
4.r
=75
8g
8g
8g
=76
8a
8dd
8cc
=77
8b
16g
16a
16b
16g
=78
8a
8r
8r
=79
8gg
8gg
8gg
=80
16aa
16gg
16ff#
16ee
16dd
16cc
=81
8b
16g
16a
16b
16g
=82
8a
8r
8r
=83
16r
16e
16f#
16g#
16a
16b
=84
16cc
16dd
8ee
8ee
=85
16r
16d
16e
16f#
16g
16a
=86
16b
16cc
8dd
8dd
=87
16cc
16d
16b
16d
16a
16d
=88
16b
16d
16a
16d
16g
16d
=89
16f#
16e
16d
16e
16f#
16g
=90
16a
16b
16dd
16cc
16b
16a
=91
8g
8g
8g
=92
8a
8dd
8cc
=93
8b
16g
16a
16b
16g
=94
8a
8r
8r
=95
8gg
8gg
8gg
=96
16aa
16gg
16ff#
16ee
16dd
16cc
=97
8b
16g
16a
16b
16g
=98
8a
8r
8r
=99
16r
16e
16f#
16g#
16a
16b
=100
16cc
16dd
8ee
8ee
=101
16r
16d
16e
16f#
16g
16a
=102
16b
16cc
16dd
16ee
16ff#
16gg
=103
16ff#
16ee
16dd
16cc
16b
16a
=104
4g
16b
16a
=105
16b
16a
16g
16f#
16g
16a
=106
16b
16cc
16dd
16ee
16ff#
16gg
=107
16ff#
16ee
16dd
16cc
16b
16a
=108
4g
16b
16a
=109
8g
8r
8r
=110
8gg
8r
8r
=111
4.g
==
*-
